public/iconset/Video.svg

<?xml version="1.0" encoding="UTF-8"?>
<svg width="24px" height="24px" viewBox="0 0 24 24" version="1.1" xmlns="http://www.w3.org/2000/svg" xmlns:xlink="http://www.w3.org/1999/xlink">
    <!-- Generator: Sketch 48.1 (47250) - http://www.bohemiancoding.com/sketch -->
    <title>24x24</title>
    <desc>Created with Sketch.</desc>
    <defs></defs>
    <g id="Page-1" stroke="none" stroke-width="1" fill="none" fill-rule="evenodd">
        <g id="Video">
            <rect id="24x24" x="0" y="0" width="24" height="24"></rect>
            <path d="M19.43,9.11 C19.3307247,8.86187501 19.1362618,8.66381097 18.89,8.56 C18.6465386,8.45998198 18.3734614,8.45998198 18.13,8.56 L15.5,9.56 L15.5,8.5 C15.5,7.67157288 14.8284271,7 14,7 L6,7 C5.17157288,7 4.5,7.67157288 4.5,8.5 L4.5,15.5 C4.5,16.3284271 5.17157288,17 6,17 L14,17 C14.8284271,17 15.5,16.3284271 15.5,15.5 L15.5,14.4 L18.12,15.4 C18.2409113,15.4478158 18.3699871,15.4715929 18.5,15.47 C19.0522847,15.47 19.5,15.0222847 19.5,14.47 L19.5,9.47 C19.4977606,9.34684434 19.4740728,9.22502139 19.43,9.11 Z M14.5,15.5 C14.5,15.7761424 14.2761424,16 14,16 L6,16 C5.72385763,16 5.5,15.7761424 5.5,15.5 L5.5,8.5 C5.5,8.22385763 5.72385763,8 6,8 L14,8 C14.2761424,8 14.5,8.22385763 14.5,8.5 L14.5,15.5 Z M18.5,14.5 L15.5,13.3 L15.5,10.68 L18.5,9.48 L18.5,14.5 Z" id="Shape" fill="#000000" fill-rule="nonzero"></path>
        </g>
    </g>
</svg>

<svg id="target" xmlns="http://www.w3.org/2000/svg" viewBox="0 0 24 24"><title>Video</title><path d="M19.43,9.11a1,1,0,0,0-.54-.55,1,1,0,0,0-.76,0l-2.63,1V8.5A1.5,1.5,0,0,0,14,7H6A1.5,1.5,0,0,0,4.5,8.5v7A1.5,1.5,0,0,0,6,17h8a1.5,1.5,0,0,0,1.5-1.5V14.4l2.62,1a1,1,0,0,0,.38.07,1,1,0,0,0,1-1v-5A1.06,1.06,0,0,0,19.43,9.11ZM14.5,15.5a.5.5,0,0,1-.5.5H6a.5.5,0,0,1-.5-.5v-7A.5.5,0,0,1,6,8h8a.5.5,0,0,1,.5.5v7Zm4-1-3-1.2V10.68h0l3-1.2Z"/></svg>
